svg/fluentui-system-icons/ic_fluent_megaphone_24_filled.svg

<svg width="24" height="24" viewBox="0 0 24 24" fill="none" xmlns="http://www.w3.org/2000/svg">
<path d="M21.9068 5.62236C21.9686 5.83039 22 6.04627 22 6.26329V17.7387C22 18.9813 20.9926 19.9887 19.75 19.9887C19.5329 19.9887 19.317 19.9573 19.1089 19.8954L13.595 18.2558C12.9378 19.6008 11.5584 20.4994 10 20.4994C7.8578 20.4994 6.10892 18.8155 6.0049 16.6991L6 16.4994L5.999 15.9987L3.60891 15.288C2.65446 15.0043 2 14.127 2 13.1313V10.8693C2 9.87356 2.65455 8.99622 3.60908 8.71256L19.1091 4.1065C20.3002 3.75253 21.5528 4.4312 21.9068 5.62236ZM7.499 16.4447L7.5 16.4994C7.5 17.8801 8.61929 18.9994 10 18.9994C10.8852 18.9994 11.6783 18.5352 12.1238 17.82L7.499 16.4447Z" fill="#212121"/>
</svg>

<svg xmlns="http://www.w3.org/2000/svg" width="24" height="24"><path d="M21.907 5.622c.062.208.093.424.093.641V17.74a2.25 2.25 0 0 1-2.891 2.156l-5.514-1.64a4.002 4.002 0 0 1-7.59-1.556L6 16.5l-.001-.5-2.39-.711A2.25 2.25 0 0 1 2 13.131V10.87a2.25 2.25 0 0 1 1.61-2.156l15.5-4.606a2.25 2.25 0 0 1 2.797 1.515ZM7.499 16.445l.001.054a2.5 2.5 0 0 0 4.624 1.321l-4.625-1.375Z"/></svg>
